icons/desktop/16/svg/paw-print-16.svg

<svg width="16" height="16" viewBox="0 0 16 16" fill="none" xmlns="http://www.w3.org/2000/svg">
<path fill-rule="evenodd" clip-rule="evenodd" d="M8.00098 5C9.14171 5 10.1627 5.68623 10.6289 6.73047L10.8213 7.13867C11.2904 8.079 11.8977 8.93785 12.6211 9.68652L13.2227 10.3086C13.7225 10.825 14 11.5154 14 12.2334V12.2432C13.9999 13.5001 13.0677 14.5756 11.8174 14.7441C10.3946 14.9351 9.10613 15 8 15C6.58798 15 5.29818 14.8953 4.15625 14.7402C2.90387 14.57 2.00003 13.4853 2 12.2471H2.00195C2.00195 11.5241 2.27898 10.8268 2.7793 10.3086L3.38086 9.68652C4.20742 8.83104 4.88235 7.83033 5.37305 6.73047C5.83851 5.68537 6.86097 5.00001 8.00098 5ZM8.00098 6.5C7.47324 6.50001 6.97583 6.81832 6.74316 7.34082C6.18192 8.59879 5.40827 9.74707 4.45898 10.7295L3.8584 11.3516L3.85742 11.3506C3.63198 11.5843 3.50195 11.9062 3.50195 12.2471H3.5C3.50003 12.7608 3.87483 13.1882 4.3584 13.2539C5.44031 13.4008 6.66229 13.5 8 13.5C9.04777 13.5 10.2682 13.4388 11.6172 13.2578L11.709 13.2412C12.1643 13.136 12.4999 12.7222 12.5 12.2432V12.2334C12.5 11.9035 12.3725 11.5872 12.1445 11.3516L11.543 10.7295C10.5939 9.74726 9.82014 8.60102 9.25879 7.3418C9.02495 6.81809 8.52821 6.5 8.00098 6.5Z" fill="black"/>
<path d="M1.5 5C2.32843 5 3 5.89543 3 7C3 8.10457 2.32843 9 1.5 9C0.671573 9 0 8.10457 0 7C0 5.89543 0.671573 5 1.5 5Z" fill="black"/>
<path d="M14.5 5C15.3284 5 16 5.89543 16 7C16 8.10457 15.3284 9 14.5 9C13.6716 9 13 8.10457 13 7C13 5.89543 13.6716 5 14.5 5Z" fill="black"/>
<path d="M5.5 0.5C6.32843 0.5 7 1.39543 7 2.5C7 3.60457 6.32843 4.5 5.5 4.5C4.67157 4.5 4 3.60457 4 2.5C4 1.39543 4.67157 0.5 5.5 0.5Z" fill="black"/>
<path d="M10.5 0.5C11.3284 0.5 12 1.39543 12 2.5C12 3.60457 11.3284 4.5 10.5 4.5C9.67157 4.5 9 3.60457 9 2.5C9 1.39543 9.67157 0.5 10.5 0.5Z" fill="black"/>
</svg>

<!-- This Source Code Form is subject to the terms of the Mozilla Public
   - License, v. 2.0. If a copy of the MPL was not distributed with this
   - file, You can obtain one at http://mozilla.org/MPL/2.0/. -->
<svg xmlns="http://www.w3.org/2000/svg" width="16" height="16" fill="context-fill" fill-opacity="context-fill-opacity" viewBox="0 0 16 16">
    <path fill-rule="evenodd" d="M8.001 5c1.14 0 2.162.686 2.628 1.73l.192.409c.47.94 1.077 1.799 1.8 2.548l.602.622c.5.516.777 1.206.777 1.924v.01a2.53 2.53 0 0 1-2.183 2.501 28.7 28.7 0 0 1-7.66-.004C2.903 14.57 2 13.485 2 12.247h.002c0-.723.277-1.42.777-1.938l.602-.622A10.3 10.3 0 0 0 5.373 6.73 2.89 2.89 0 0 1 8.001 5m0 1.5c-.528 0-1.025.318-1.258.84a11.8 11.8 0 0 1-2.284 3.39l-.6.622-.002-.001a1.3 1.3 0 0 0-.355.896H3.5c0 .514.375.941.858 1.007a27 27 0 0 0 7.26.004l.091-.017c.455-.105.79-.519.791-.998v-.01c0-.33-.127-.646-.355-.881l-.602-.623a11.8 11.8 0 0 1-2.284-3.387A1.39 1.39 0 0 0 8 6.5" clip-rule="evenodd" />
    <path d="M1.5 5C2.328 5 3 5.895 3 7s-.672 2-1.5 2S0 8.105 0 7s.672-2 1.5-2M14.5 5c.828 0 1.5.895 1.5 2s-.672 2-1.5 2S13 8.105 13 7s.672-2 1.5-2M5.5.5c.828 0 1.5.895 1.5 2s-.672 2-1.5 2S4 3.605 4 2.5s.672-2 1.5-2M10.5.5c.828 0 1.5.895 1.5 2s-.672 2-1.5 2S9 3.605 9 2.5s.672-2 1.5-2" />
</svg>
